X: 21111
T: Kanturk, The
R: jig
M: 6/8
K: Dmajor
ded dcA|GEF GED|FGA GED|CEA cBc|
ded dcA|GEF GED|FGA GEC|1 EDD D2A:|2 EDD D2E||
|:=FED =FGA|=cdB =cAG|A=fe dec|ABc d2c|
BGB dcB|ABA DFA|GFG EDC|1 EDD D2E:|2 EDD DFA||

